modules/feathericon/icons/print.svg

<svg width="14" height="14" xmlns="http://www.w3.org/2000/svg"><path d="M0 8s0-1 1-1h1V5h1V1s0-1 .996-1H10c1 0 1 1 1 1v4h1v2h1c1 0 1 1 1 1v5h-3s0 1-1 1H3.996C3 14 3 13 3 13H0V8zm4 2h6v3H4v-3zm4-2h2v1H8V8zM4 1h6v6H4V1z" fill="#000" fill-rule="evenodd"/></svg>

<?xml version="1.0" encoding="UTF-8"?>
<svg width="14px" height="14px" viewBox="0 0 14 14" version="1.1" xmlns="http://www.w3.org/2000/svg" xmlns:xlink="http://www.w3.org/1999/xlink">
    <!-- Generator: sketchtool 48.1 (47250) - http://www.bohemiancoding.com/sketch -->
    <title>print</title>
    <desc>Created with sketchtool.</desc>
    <defs></defs>
    <g id="web-app" stroke="none" stroke-width="1" fill="none" fill-rule="evenodd">
        <g id="print" fill="#000000">
            <path d="M0,8 C0,8 0,7 1,7 L2,7 L2,5 L3,5 L3,1 C3,1 3,2.36411233e-09 3.99558592,7.0987302e-09 C3.99558592,3.33467907e-15 10,7.09873005e-09 10,7.09873011e-09 C11,7.09873011e-09 11,1 11,1 L11,5 L12,5 L12,7 C12,7 13,7 13,7 C14,7 14,8 14,8 L14,13 L11,13 C11,13 11,14 10,14 L3.99558592,14 C3,14 3,13 3,13 L0,13 L0,8 Z M4,10 L10,10 L10,13 L4,13 L4,10 Z M8,8 L10,8 L10,9 L8,9 L8,8 Z M4,1 L10,1 L10,7 L4,7 L4,1 Z" id="Shape"></path>
        </g>
    </g>
</svg>
